Sources/FrostedUI/Resources/Icons.xcassets/sad12.imageset/sad-12.svg

<svg width="12" height="12" viewBox="0 0 12 12" fill="none" xmlns="http://www.w3.org/2000/svg" data-fui-icon="true">
  <path
    d="M6 0C9.31371 0 12 2.68629 12 6C12 9.31371 9.31371 12 6 12C2.68629 12 0 9.31371 0 6C0 2.68629 2.68629 0 6 0ZM6 1.5C3.51472 1.5 1.5 3.51472 1.5 6C1.5 8.48528 3.51472 10.5 6 10.5C8.48528 10.5 10.5 8.48528 10.5 6C10.5 3.51472 8.48528 1.5 6 1.5ZM6 6.5C6.93219 6.5 7.59535 6.81534 8.03125 7.16406C8.24428 7.33448 8.3961 7.50767 8.49805 7.64355C8.54896 7.71144 8.58808 7.77108 8.61621 7.81738C8.63025 7.8405 8.64243 7.86071 8.65137 7.87695C8.65585 7.8851 8.65982 7.89319 8.66309 7.89941L8.66992 7.91309L8.6709 7.91406C8.67064 7.9146 8.65767 7.92104 8.27734 8.11133L8.6709 7.91504C8.85584 8.28545 8.70531 8.73572 8.33496 8.9209C7.98777 9.09425 7.57064 8.97319 7.36719 8.65234L7.33203 8.59082C7.3325 8.59174 7.3326 8.59297 7.33301 8.59375C7.32733 8.58457 7.31618 8.5671 7.29883 8.54395C7.26015 8.49238 7.19306 8.41538 7.09375 8.33594C6.90465 8.18466 6.56781 8 6 8C5.43219 8 5.09535 8.18466 4.90625 8.33594C4.80694 8.41538 4.73985 8.49238 4.70117 8.54395C4.68507 8.56544 4.67301 8.58122 4.66699 8.59082L4.63281 8.65234C4.42936 8.97319 4.01223 9.09425 3.66504 8.9209C3.29469 8.73572 3.14416 8.28545 3.3291 7.91504L3.72266 8.11133C3.34233 7.92104 3.32936 7.9146 3.3291 7.91406L3.33008 7.91309L3.33691 7.89941C3.34018 7.89319 3.34415 7.8851 3.34863 7.87695C3.35757 7.86071 3.36975 7.8405 3.38379 7.81738C3.41192 7.77108 3.45104 7.71144 3.50195 7.64355C3.6039 7.50767 3.75572 7.33448 3.96875 7.16406C4.40465 6.81534 5.06781 6.5 6 6.5ZM4.66602 8.5957C4.66478 8.59805 4.66353 8.59978 4.66309 8.60059C4.66341 8.60002 4.66388 8.59859 4.66504 8.59668L4.66602 8.59375V8.5957ZM4.25 3.78125C4.80228 3.78125 5.25 4.22897 5.25 4.78125C5.25 5.33353 4.80228 5.78125 4.25 5.78125C3.69772 5.78125 3.25 5.33353 3.25 4.78125C3.25 4.22897 3.69772 3.78125 4.25 3.78125ZM7.75 3.78125C8.30229 3.78125 8.75 4.22897 8.75 4.78125C8.75 5.33353 8.30229 5.78125 7.75 5.78125C7.19772 5.78125 6.75 5.33353 6.75 4.78125C6.75 4.22897 7.19772 3.78125 7.75 3.78125Z"
    fill="currentColor"
  />
</svg>

<svg xmlns="http://www.w3.org/2000/svg" width="12" height="12" fill="none" data-fui-icon="true" viewBox="0 0 12 12"><path fill="currentColor" d="M6 0a6 6 0 1 1 0 12A6 6 0 0 1 6 0m0 1.5a4.5 4.5 0 1 0 0 9 4.5 4.5 0 0 0 0-9m0 5c.932 0 1.595.315 2.031.664a2.7 2.7 0 0 1 .585.653l.035.06.012.022.007.014v.001l-.393.197.394-.196a.75.75 0 0 1-1.304.737l-.035-.061.001.003-.034-.05a1.2 1.2 0 0 0-.205-.208C6.904 8.185 6.568 8 6 8s-.905.185-1.094.336c-.1.08-.166.156-.205.208l-.034.047-.034.061a.75.75 0 0 1-1.304-.737l.394.196-.394-.197h.001l.007-.015.012-.022q.013-.025.035-.06.042-.07.118-.173c.102-.136.254-.31.467-.48C4.405 6.815 5.068 6.5 6 6.5M4.666 8.596l-.003.005zl.001-.003zM4.25 3.78a1 1 0 1 1 0 2 1 1 0 0 1 0-2m3.5 0a1 1 0 1 1 0 2 1 1 0 0 1 0-2"/></svg>
